svgs/sharp-regular/person-arrow-down-to-line.svg

<svg xmlns="http://www.w3.org/2000/svg" viewBox="0 0 640 512"><!--! Font Awesome Pro 6.6.0 by @fontawesome - https://fontawesome.com License - https://fontawesome.com/license (Commercial License) Copyright 2024 Fonticons, Inc. --><path d="M192 96a48 48 0 1 0 0-96 48 48 0 1 0 0 96zm-51.1 32l-14.1 0-6.9 12.4-75.3 136L33 297.4l42 23.3 11.6-21L128 224.9 128 464 24 464 0 464l0 48 24 0 104 0 48 0 32 0 48 0 360 0 24 0 0-48-24 0-360 0 0-239.1 41.4 74.8 11.6 21 42-23.3-11.6-21-75.3-136L257.2 128l-14.1 0-102.2 0zM208 464l-32 0 0-112 32 0 0 112zm0-160l-32 0 0-128 32 0 0 128zM472 56l0 281.7-47.9-43.5-32.3 35.5 88 80L496 424.4l16.1-14.7 88-80-32.3-35.5L520 337.7 520 56l0-24-48 0 0 24z"/></svg>

<svg xmlns="http://www.w3.org/2000/svg" viewBox="0 0 640 512"><!--! Font Awesome Pro 6.4.2 by @fontawesome - https://fontawesome.com License - https://fontawesome.com/license (Commercial License) Copyright 2023 Fonticons, Inc. --><path d="M192 96a48 48 0 1 0 0-96 48 48 0 1 0 0 96zm-51.1 32H126.8l-6.9 12.4-75.3 136L33 297.4l42 23.3 11.6-21L128 224.9V464H24 0v48H24 128h48 32 48H616h24V464H616 256V224.9l41.4 74.8 11.6 21 42-23.3-11.6-21-75.3-136L257.2 128H243.1 140.9zM208 464H176V352h32V464zm0-160H176V176h32V304zM472 56l0 281.7-47.9-43.5-32.3 35.5 88 80L496 424.4l16.1-14.7 88-80-32.3-35.5L520 337.7 520 56V32l-48 0V56z"/></svg>
